public/images/svg/fish.svg

<svg xmlns="http://www.w3.org/2000/svg" viewBox="0 0 45.52 45.52"><path d="M45.028 13.98c.574-.619.322-1.683-.45-2.027-1.798-.8-1.061-3.459-2.564-3.318-1.724.161-2.99-1.104-2.828-2.828.161-1.724-1.104-2.99-2.828-2.828C34.634 3.14 36.314.46 33.53.151c0 0-1.945-.751-2.13 1.111l-.029 7.258H20.164C9.126 8.52.178 17.468.178 28.506V45.52h16.876c11.114 0 20.124-9.01 20.124-20.124V14.237l7.244.067c.256-.04.453-.16.606-.324z" fill="#698B9E"/><path d="M21.951 39.899h-2c0-7.72-6.28-14-14-14v-2c8.822 0 16 7.177 16 16z" fill="#5D7989"/><path d="M25.206 36.644h-2c0-7.72-6.28-14-14-14v-2c8.822 0 16 7.178 16 16z" fill="#5D7989"/><path d="M28.315 33.534h-2c0-7.72-6.28-14-14-14v-2c8.822 0 16 7.178 16 16z" fill="#5D7989"/><path d="M31.57 30.28h-2c0-7.72-6.28-14-14-14v-2c8.822 0 16 7.177 16 16z" fill="#5D7989"/><path d="M14.824 9.263c-.394-1.98-1.211-4.133-2.77-6.285 0 0-8.224 4.078-4.851 10.331 2.185-1.865 4.775-3.257 7.621-4.046zM36.819 29.131c-.605 3.221-1.979 6.164-3.922 8.647 2.863.326 7.064.045 11.238-2.98 0 0-2.8-5.647-7.316-5.667z" fill="#546A79"/><circle cx="5.951" cy="33.384" r="2" fill="#38454F"/></svg>

<?xml version="1.0" encoding="iso-8859-1"?>
<!-- Generator: Adobe Illustrator 18.0.0, SVG Export Plug-In . SVG Version: 6.00 Build 0)  -->
<!DOCTYPE svg PUBLIC "-//W3C//DTD SVG 1.1//EN" "http://www.w3.org/Graphics/SVG/1.1/DTD/svg11.dtd">
<svg version="1.1" id="Capa_1" xmlns="http://www.w3.org/2000/svg" xmlns:xlink="http://www.w3.org/1999/xlink" x="0px" y="0px"
	 viewBox="0 0 45.52 45.52" style="enable-background:new 0 0 45.52 45.52;" xml:space="preserve">
<g>
	<path style="fill:#698B9E;" d="M45.028,13.98c0.574-0.619,0.322-1.683-0.45-2.027c-1.798-0.8-1.061-3.459-2.564-3.318
		c-1.724,0.161-2.99-1.104-2.828-2.828c0.161-1.724-1.104-2.99-2.828-2.828c-1.724,0.161-0.044-2.519-2.828-2.828
		c0,0-1.945-0.751-2.13,1.111L31.371,8.52H20.164c-11.038,0-19.986,8.948-19.986,19.986l0,17.014l16.876,0
		c11.114,0,20.124-9.01,20.124-20.124l0-11.159l7.244,0.067C44.678,14.264,44.875,14.144,45.028,13.98z"/>
	<path style="fill:#5D7989;" d="M21.951,39.899h-2c0-7.72-6.28-14-14-14v-2C14.773,23.899,21.951,31.076,21.951,39.899z"/>
	<path style="fill:#5D7989;" d="M25.206,36.644h-2c0-7.72-6.28-14-14-14v-2C18.028,20.644,25.206,27.822,25.206,36.644z"/>
	<path style="fill:#5D7989;" d="M28.315,33.534h-2c0-7.72-6.28-14-14-14v-2C21.137,17.534,28.315,24.712,28.315,33.534z"/>
	<path style="fill:#5D7989;" d="M31.57,30.28h-2c0-7.72-6.28-14-14-14v-2C24.392,14.28,31.57,21.457,31.57,30.28z"/>
	<path style="fill:#546A79;" d="M14.824,9.263c-0.394-1.98-1.211-4.133-2.77-6.285c0,0-8.224,4.078-4.851,10.331
		C9.388,11.444,11.978,10.052,14.824,9.263z"/>
	<path style="fill:#546A79;" d="M36.819,29.131c-0.605,3.221-1.979,6.164-3.922,8.647c2.863,0.326,7.064,0.045,11.238-2.98
		C44.135,34.798,41.335,29.151,36.819,29.131z"/>
	<circle style="fill:#38454F;" cx="5.951" cy="33.384" r="2"/>
</g>
<g>
</g>
<g>
</g>
<g>
</g>
<g>
</g>
<g>
</g>
<g>
</g>
<g>
</g>
<g>
</g>
<g>
</g>
<g>
</g>
<g>
</g>
<g>
</g>
<g>
</g>
<g>
</g>
<g>
</g>
</svg>
